X:1
T:Liberty Two-Step - D
M:2/4
L:1/8
K:D
"D"fAfA|f/g/f/e/ d/e/f/a/|"G"gBgB|g/a/g/f/ e/d/B/e/|
|:"D"AA/B/ A/G/F/E/|D/F/A/d/ fd|A>B/2c/2 d>F|"A"[EA]>F [EA][EA]|

